assets/images/cart.svg

<svg width="24" height="21" viewBox="0 0 24 21" fill="none" xmlns="http://www.w3.org/2000/svg">
<g clip-path="url(#clip0_86_517)">
<path d="M8.13022 19.7002C8.12892 19.9566 8.05243 20.2069 7.91022 20.4202C7.76802 20.6335 7.56636 20.8004 7.33022 20.9002C7.154 20.974 6.96356 21.0076 6.77273 20.9986C6.5819 20.9896 6.39546 20.9383 6.22694 20.8483C6.05843 20.7583 5.91207 20.6319 5.79848 20.4783C5.68488 20.3247 5.60691 20.1477 5.57022 19.9602C5.52323 19.7086 5.54748 19.4488 5.64022 19.2102C5.73619 18.9718 5.90393 18.7691 6.12022 18.6302C6.36798 18.4627 6.66645 18.3871 6.96407 18.4163C7.26169 18.4455 7.53976 18.5778 7.75022 18.7902C7.87145 18.9086 7.96758 19.0502 8.03287 19.2065C8.09816 19.3629 8.13127 19.5308 8.13022 19.7002Z" fill="#FF0000"/>
<path d="M19.6107 19.7002C19.6094 19.9566 19.5329 20.2069 19.3907 20.4202C19.2485 20.6335 19.0468 20.8004 18.8107 20.9002C18.6345 20.974 18.444 21.0076 18.2532 20.9986C18.0624 20.9896 17.8759 20.9383 17.7074 20.8483C17.5389 20.7583 17.3925 20.6319 17.2789 20.4783C17.1654 20.3247 17.0874 20.1477 17.0507 19.9602C17.0037 19.7086 17.0279 19.4488 17.1207 19.2102C17.2167 18.9718 17.3844 18.7691 17.6007 18.6302C17.8484 18.4627 18.1469 18.3871 18.4445 18.4163C18.7422 18.4455 19.0202 18.5778 19.2307 18.7902C19.3519 18.9086 19.448 19.0502 19.5133 19.2065C19.5786 19.3629 19.6117 19.5308 19.6107 19.7002Z" fill="#FF0000"/>
<path d="M22.59 4.53367C22.5724 4.47479 22.5376 4.42253 22.49 4.38367C22.4403 4.34613 22.3817 4.32203 22.32 4.31367L5.39998 2.68367C5.32091 2.67674 5.24504 2.64915 5.17998 2.60367C5.11149 2.5602 5.05345 2.50216 5.00998 2.43367C4.84009 2.09216 4.62847 1.77306 4.37998 1.48367C3.97998 0.993666 3.22998 1.01367 1.84998 1.00367C1.74568 0.99377 1.64045 1.00395 1.53998 1.03367C1.44019 1.06355 1.34807 1.11472 1.26998 1.18367C1.19004 1.2516 1.12238 1.33278 1.06998 1.42367C1.02395 1.51697 1 1.61962 1 1.72367C1 1.82771 1.02395 1.93036 1.06998 2.02367C1.11138 2.11893 1.17277 2.20419 1.24998 2.27367C1.32291 2.34441 1.41224 2.39595 1.50998 2.42367C1.60702 2.45336 1.70898 2.46356 1.80998 2.45367C2.26219 2.44216 2.71441 2.47566 3.15998 2.55367C3.39998 2.62367 3.59998 3.02367 3.66998 3.37367V3.39367C3.67998 3.45367 3.76998 3.92367 3.76998 3.92367L5.84998 14.8537C5.94036 15.5206 6.1984 16.1536 6.59998 16.6937C6.79852 16.9583 7.0551 17.1738 7.34998 17.3237C7.64766 17.4721 7.97753 17.5442 8.30998 17.5337H20.6C20.7892 17.5343 20.9716 17.4628 21.11 17.3337C21.2479 17.2015 21.3331 17.0239 21.35 16.8337C21.3538 16.7346 21.3367 16.6358 21.3 16.5437C21.266 16.4494 21.2114 16.364 21.14 16.2937C21.0734 16.2226 20.9912 16.1678 20.9 16.1337C20.8085 16.0937 20.7098 16.0733 20.61 16.0737H8.30998C8.15388 16.0849 7.99957 16.0346 7.87998 15.9337C7.5402 15.5637 7.32965 15.0935 7.27998 14.5937L7.04998 13.3637V13.3437C7.04998 13.3337 7.05998 13.3337 7.06998 13.3337L21.5 10.9137C21.5661 10.9066 21.627 10.8744 21.67 10.8237C21.7161 10.7744 21.7443 10.711 21.75 10.6437L22.58 4.66367C22.5977 4.62267 22.6013 4.5769 22.59 4.53367Z" stroke="#FF0000" stroke-miterlimit="10"/>
</g>
<defs>
<clipPath id="clip0_86_517">
<rect width="22.598" height="20.5" fill="white" transform="translate(0.5 0.5)"/>
</clipPath>
</defs>
</svg>

<svg xmlns="http://www.w3.org/2000/svg" width="22.598" height="20.5" viewBox="0 0 22.598 20.5">
  <g id="cart" transform="translate(-0.5 -0.5)">
    <path id="Path_15123" data-name="Path 15123" d="M8.13,19.7a1.31,1.31,0,0,1-.8,1.2,1.287,1.287,0,0,1-1.76-.94,1.374,1.374,0,0,1,.07-.75,1.239,1.239,0,0,1,.48-.58,1.283,1.283,0,0,1,1.63.16A1.261,1.261,0,0,1,8.13,19.7Z" fill="#6133bd"/>
    <path id="Path_15124" data-name="Path 15124" d="M19.61,19.7a1.31,1.31,0,0,1-.8,1.2,1.287,1.287,0,0,1-1.76-.94,1.374,1.374,0,0,1,.07-.75,1.239,1.239,0,0,1,.48-.58,1.283,1.283,0,0,1,1.63.16A1.261,1.261,0,0,1,19.61,19.7Z" fill="#6133bd"/>
    <path id="Path_15125" data-name="Path 15125" d="M22.59,4.534a.307.307,0,0,0-.1-.15.363.363,0,0,0-.17-.07L5.4,2.684a.453.453,0,0,1-.22-.08.551.551,0,0,1-.17-.17,4.611,4.611,0,0,0-.63-.95c-.4-.49-1.15-.47-2.53-.48a.82.82,0,0,0-.31.03.72.72,0,0,0-.27.15.914.914,0,0,0-.2.24.678.678,0,0,0,0,.6.725.725,0,0,0,.18.25.614.614,0,0,0,.26.15.769.769,0,0,0,.3.03,6.822,6.822,0,0,1,1.35.1c.24.07.44.47.51.82v.02c.01.06.1.53.1.53l2.08,10.93a3.979,3.979,0,0,0,.75,1.84,2.163,2.163,0,0,0,.75.63,2.009,2.009,0,0,0,.96.21H20.6a.744.744,0,0,0,.51-.2.789.789,0,0,0,.24-.5.71.71,0,0,0-.05-.29.669.669,0,0,0-.16-.25.633.633,0,0,0-.24-.16.717.717,0,0,0-.29-.06H8.31a.6.6,0,0,1-.43-.14,2.32,2.32,0,0,1-.6-1.34l-.23-1.23v-.02c0-.01.01-.01.02-.01l14.43-2.42a.259.259,0,0,0,.17-.09.3.3,0,0,0,.08-.18l.83-5.98A.2.2,0,0,0,22.59,4.534Z" fill="none" stroke="#6133bd" stroke-miterlimit="10" stroke-width="1"/>
  </g>
</svg>
